X: 16393
T: Gwrachod Llanddona
R: jig
M: 6/8
K: Bminor
|:F|FGF EDE|FGF F2F|BcB ABA|GAG F2F| 
FGF EDE|FGF B2c|dcB ABc|B3 B2:| 
|:c|dcB cBA|B2F F2F|dcB cBA|B2B f3|
dcB cBA|B2F F2E|DEF dcA|B3 B2:|

